X: 158
T:James Winder's Good Hp. JaW.158
T:Good Hornpipe,A. JaW.158
M:C|
L:1/8
Q:160
C:untitled in MS "-A good Hornpipe"
S:James Winder Ms, Lancashire, 1835-41
R:Hornpipe
O:England
A:Wyresdale,Lancashire
N:signed "James Winder 1835"
H:1/8
Z:vmp.Chris Partington, Aug 2004
K:Bb
DC|B,DFB dBFD|CEGc ecGE|DB,FD FBdB|c2c2c2DC|!
B,DFB dBFD|CEGc ecGE|DFEG Ffed|c2B2B2:|!
|:de|fBB2dff2|dfBf dfbf|egeg dfdf|c2F2F2dc|!
BFDB, B,DBd|EGce dBFD|dfBd ceAc|B2B2B2:|]
W:signed "James Winder 1835" |
